X:1
T:N 3. THEME.
T: 40. ADAGIO
T:L. V. BEETHOVEN (1770-1827)
T: Quand on regarde un portrait de Beethoven, on est surtout frappé par la profondeur de son regard qui semble comme fixé vers l'Idéal cette profondeur de regard se change, dans sés œuvres, en une profondeur didées que bien peu de compositeurs ont atteinte autant que lui. Cest surtout dans les Adagio, les Andante qu'il se montre le plus émouvant, le plus pathétique. Cette page d'une très grande beauté, est empreinte d'une sentiment expressif très intense qui transporte l'auditeur vers cet idéal ou se complaisait l'âme du grand artiste. Tout exécutant qui ne possède pas un tempérament musicien, ne tirera pas grand effet de ce pur chef d'œuvre qui demande surtout de l'expression dans tous ses détails. Les liaisons indiquant les divisions melodiques seront suivies avec grand soin et les silences qui les séparent, rigoureusement observés. A la 13è mesure, acceutuer la croche précédant la double croche et lever légèrernent les mains sur le quart de soupir, Bien exécuter tous les crescendo et les diminuendo; élargir les dernières mesures mais sans exagératicn.    
T:Louis Raffy Organistes Célébres Grands Maitres Classiques - VOLUME I
T:Louis Raffy Organistes Célébres Grands Maitres Classiques - VOLUME I
T:Louis Raffy Organistes Célébres Grands Maitres Classiques - VOLUME I
C:F. SCHUBERT (1797-1828)
Z:Louis Raffy Organistes Célébres Grands Maitres Classiques - VOLUME I
%%score { ( 1 2 ) | ( 3 4 ) }
L:1/8
Q:1/4=60
M:2/4
K:G
V:1 treble nm="Organ" snm="Org."
V:2 treble 
V:3 bass 
V:4 bass 
V:1
"^Adagio"!p!"^4""_E" (!5!B2 B2 |[M:4/4] !5!B2 !4!A>!3!G !5!GFE)F | (G2 !3!D) z!<(! (!3!d2 d2!<)! | %3
 !4!d3 c B/c/d/!3!c/- !5![ce]>!1!!3![Ac]) | %4
!>(! (!3!!5![GB]2!>)! !2!!4![FA]) z!p! (!1!!5![DB]2 [GB]2 | !3!B>A !5!e4 !5!d/^c/B/A/) | %6
 (!2!!4![EG]2 !1!!3![DF]) z (!4!A2"_cresc." B/A/G/F/ | !1!E2- EF/G/ F2-!>(! F>E!>)! | %8
 D2- D)"^1" z!p! (!2!A2 A>^A | B2 !1!G>A B2 c/B/A/B/) |"_cresc." (c2 !1!A>B c2 !4!^c2) | %11
 (!1!d2- d/!3!^d/!4!e/!1!B/)!>(! (!3!d!>)!!2!c/) z/!>(! (!3!c!>)!!2!B/) z/ | %12
"_dim." (!4!B2 !3!A)^A (!3!!5![GB]2!<(! !2![=FB]2!<)! | B2 =A!3!G [EG][^DF][^CE][DF]) | %14
 [EG]2 !1!=D2"_cresc." (d2 d2 | (3!4!dcB (3cd!5!e!>(! !2-1!G2 !5!B>!4!A!>)! | %16
 !3!G2- G) z!p! (!5!A2 !2!A>^A | B2 G>=A B2 !5!c/B/A/)B/ |"_cresc." (c2 !3!A>B !5!c2 !4!^c2) | %19
 (d2- d/^d/)e/B/!>(! (dc/)!>)! z/!>(! (cB/)!>)! z/ |"_dim." (!4!B2 !3!A)^A!<(! (B2!<)! B2 | %21
 B2 =AG [EG]^D[^CE][DF]) | [EG]2 =D2"_cresc." (d2 d2 | (3!4!dcB (3cde !2-1!G2!>(! !5!B>!4!A | %24
 !3!G2- G)!>)! z!p! !1!!5![B,G]2- [B,G] z | [B,G]4- [B,G] z z2 |] %26
V:2
 D4 |[M:4/4] C4 A,4 | G,2- G, x5 | x8 | x8 | E8 | x8 | x4 (!1!D2 !2!^C2) | x8 | x8 | x8 | x8 | %12
 (!1!G2 !2!F) z x4 | E4 x4 | x8 | E4 G2 F2 | G2- G x D4- | D8- | D8- | %19
 D2- D/ z/ z A-A/ x/ G-G/ x/ | (G2 !2!F) z G2 =F2 | E4 x4 | x8 | E4 G2 F2 | G2- G x5 | x8 |] %26
V:3
"^4" !5![G,,G,]4 |[M:4/4] !4![A,,E,]4 !2-1!D,4- | D,2- D, z !5!!3![G,B,]2 [A,C][B,D] | %3
 !1!E6 !5!!3![A,C]>[CE] | !2!D2- D z !1!G,2 !2![E,G,]2 | %5
 !3![^C,G,]4 !5!!3![A,,C,]2 !4!!2![B,,D,][C,E,] | !2!!1![D,A,]2- [D,A,] z D2 A,2 | %7
 !1!B,2- B, z !1!A,2 G,2 | !3!!2![D,F,]2 [D,F,] z D4- | D8- | D8- | %11
 D4 !5![F,D]-[F,D]/ z/ !4![^G,D]-[G,D]/ z/ | [D,D]2- [D,D] z D4 | %13
 !1!!3-4![A,C]3 !2!!3![^A,^C] (!1!B,4 | !3-5![E,B,]2) !4!!2![F,A,]2 (!3!!1![G,B,]2 !2!!4![A,C]D) | %15
 !2-1!C4 (!1-2!B,2 !1!C2) | !2!!3![G,B,]2- [G,B,] z (!3!F,!5!D,F,D,) | %17
 (!2!G,D,!1!B,A, G,D,!2!^G,D,) | (!1!A,D,!3!F,G, !1!A,D,!2!^A,D,) | %19
 (!1!B,D,!2!G,D,) (!3!F,D,!3!G,!2!B,) | !1!D-D,D z C4 | !3-4![A,C]3 !2!!3![^A,^C] B,4- | %22
 !3-5![E,B,]2 !2!!4![F,A,]2 !1-3
3-5![G,B,]2- (3[G,B,][G,C][B,D] | !2-1!C4 [B,C]2 z2 | %24
 B,2 B, z D,2 D, z | [G,,D,]4- [G,,D,] z z2 |] %26
V:4
 x4 |[M:4/4] x4 D,2 !2!C,2 | !3!B,,2- B,, x5 | !2!C6 x2 | x8 | x8 | x4 !4!F,4 | %7
 !3!G,2- G, x A,2 A,,2 | x4 !4!F,2 !5!F,2 | !4!G,2 !2!B,>A, G,2 ^G,2 | %10
 !2!A,2 F,>^G, !2-4!A,2 !3!^A,2 | (!2!B,2 !4!^G,2) x4 | x4 !5!G,2 ^G,2 | x4 B,2 B,,2 | x8 | %15
 (C2 C,2) !4-5!D,4 | x8 | x8 | x8 | x8 | x4 !5!G,2 ^G,2 | x4 B,2 B,,2 | x8 | C2 C,2 D,4 | %24
 (G,2 F,) x G,,2 G,, x | x8 |] %26

